icons/ceylon.svg

<?xml version="1.0" encoding="UTF-8"?>
<svg width="512px" height="174px" viewBox="0 0 512 174" version="1.1" xmlns="http://www.w3.org/2000/svg" xmlns:xlink="http://www.w3.org/1999/xlink" preserveAspectRatio="xMidYMid">
    <defs>
        <radialGradient cx="73.2782009%" cy="16.6298885%" fx="73.2782009%" fy="16.6298885%" r="78.9988799%" gradientTransform="translate(0.732782,0.166299),scale(0.698912,1.000000),translate(-0.732782,-0.166299)" id="radialGradient-1">
            <stop stop-color="#FFFFFF" offset="0%"></stop>
            <stop stop-color="#AB710A" offset="100%"></stop>
        </radialGradient>
        <radialGradient cx="3.34419656%" cy="5.28859345%" fx="3.34419656%" fy="5.28859345%" r="45.151471%" gradientTransform="translate(0.033442,0.052886),scale(0.385373,1.000000),translate(-0.033442,-0.052886)" id="radialGradient-2">
            <stop stop-color="#D5D5D5" offset="0%"></stop>
            <stop stop-color="#141006" offset="100%"></stop>
        </radialGradient>
    </defs>
    <g>
        <g>
            <path d="M60.3411156,114.717605 C61.7552109,115.405497 63.3051429,115.942748 64.9177687,116.367673 C64.785415,123.905741 65.2434286,135.137524 68.2318367,145.39581 L68.2318367,145.39581 L48.0992653,145.39581 C49.2042449,133.31766 56.980898,119.986503 60.3411156,114.717605 Z M135.765333,89.4432653 C139.145578,100.152599 140.729469,126.969034 147.399401,145.39581 L147.399401,145.39581 L122.073687,145.39581 C122.570884,141.537524 119.936871,137.655728 120.802395,133.764354 C122.878259,124.433415 126.005116,115.02585 130.15249,105.655728 C130.238694,105.790694 135.680871,89.3117823 135.765333,89.4432653 Z" fill="#AB710A"></path>
            <path d="M202.214748,42.2687347 C196.451265,34.0288435 183.313415,27.2169796 180.246639,17.8668844 C179.462966,15.4766803 179.328871,10.5682721 180.843973,8.27385034 C182.214531,6.20146939 179.965388,6.69344218 179.965388,6.69344218 C176.69834,7.95863946 175.285116,4.34851701 175.285116,4.34851701 C174.794014,3.08331973 175.458395,-0.76277551 172.647619,1.34530612 C167.568544,5.15308844 169.242993,14.3943401 170.191238,18.1768707 C170.849524,21.0842993 173.859701,29.2632381 179.843483,35.0972517 C181.411701,36.6271565 191.792762,47.9590748 190.378667,53.7765442 C190.320327,54.0099048 190.131374,57.4154014 186.866939,58.0684626 C179.352381,59.5722449 176.909061,50.3658231 176.909061,50.3658231 C171.273578,26.3174966 162.183837,17.913034 162.183837,17.913034 C145.502041,17.2773878 133.141769,18.8220952 118.207565,21.6999184 C61.955483,19.594449 19.6275374,36.8753197 19.6275374,36.8753197 C7.24810884,54.6272653 0.00783673469,87.5633197 0.00783673469,87.5633197 C0.00783673469,87.5633197 -0.0252517007,87.7191837 0.114938776,87.7426939 C0.398802721,87.7897143 0.548571429,87.5363265 0.548571429,87.5363265 C8.29387755,77.8405442 16.2142041,71.7226667 16.2142041,71.7226667 C15.0413061,117.518803 25.4188844,145.39668 25.4188844,145.39668 L45.0638367,145.39668 C46.4474558,128.901224 59.4181224,110.644245 59.4181224,110.644245 C66.7210884,116.182204 83.217415,114.546939 83.217415,114.546939 C86.1152653,125.627211 92.0328707,145.39668 92.0328707,145.39668 L115.705905,145.39668 C117.858395,128.307374 123.324082,113.160707 128.584272,101.800925 C128.584272,101.800925 134.449633,88.5045986 134.638585,84.5592381 C135.013878,77.6089252 141.589769,75.540898 145.159837,75.540898 C148.728163,75.540898 164.955429,84.608 177.098014,83.9949932 C198.230204,82.9318095 206.56849,73.1541769 206.970776,62.0138231 C207.248544,54.3268571 205.446966,46.8897959 202.214748,42.2687347 Z M134.321633,65.8895238 C134.216272,66.182966 134.083048,66.4825034 133.881905,66.7689796 C133.684245,67.0537143 133.414313,67.3367075 133.05034,67.5334966 C132.68985,67.736381 132.250122,67.8164898 131.853932,67.7973333 C131.454259,67.7790476 131.093769,67.6806531 130.766367,67.5578776 C129.47766,67.0267211 128.566857,66.2038639 127.689143,65.397551 C127.252898,64.9917823 126.845388,64.5685986 126.447456,64.152381 C126.054748,63.7422585 125.64985,63.3060136 125.303293,62.9559728 C124.75385,62.443102 123.839565,62.0155646 122.878259,61.6742313 C121.904762,61.3381224 120.858122,61.0516463 119.775782,60.7834558 C118.689959,60.5082993 117.588463,60.2479456 116.389442,59.8578503 C116.087293,59.7559728 115.780789,59.6384218 115.448163,59.4895238 C115.296653,59.4216054 115.078095,59.3101497 114.930068,59.2274286 C114.714122,59.1037823 114.506014,58.9566259 114.313578,58.7911837 C113.924354,58.4585578 113.615238,58.0484354 113.394068,57.6400544 C113.174639,57.2281905 113.031837,56.8171973 112.940408,56.427102 C112.761905,55.6460408 112.747973,54.9389932 112.772354,54.2728707 C112.80283,53.6067483 112.879456,52.9771973 112.990041,52.3676735 C113.218177,51.1494966 113.525551,49.9992381 113.889524,48.8794558 C114.251755,47.7596735 114.648816,46.6668844 115.086803,45.5958639 C115.305361,45.0542585 115.515211,44.5379048 115.75902,43.9849796 C116.011537,43.4181224 116.29366,42.869551 116.601905,42.3375238 C117.849687,40.2137687 119.527619,38.4278639 121.410177,37.0068027 C122.354939,36.2971429 123.348463,35.6675918 124.380299,35.1338231 C125.413878,34.5965714 126.485769,34.1411701 127.593361,33.8311837 C125.716898,35.1442721 124.025905,36.6315102 122.551728,38.2606803 C121.086259,39.8889796 119.853279,41.6748844 119.01649,43.5879184 C118.804027,44.0624762 118.618558,44.5483537 118.460952,45.038585 L117.956789,46.6181224 C117.634612,47.6847891 117.309823,48.743619 117.037279,49.8015782 C116.765605,50.8569252 116.508735,51.9087891 116.36332,52.9284354 C116.288435,53.4369524 116.228354,53.9358912 116.215293,54.4026122 C116.20049,54.8667211 116.231837,55.306449 116.314558,55.6294966 C116.392054,55.9638639 116.495673,56.1205986 116.572299,56.1876463 C116.593197,56.205932 116.616707,56.2250884 116.647184,56.2442449 C116.74732,56.3008435 116.780408,56.3156463 116.884027,56.3670204 C117.069497,56.4558367 117.293279,56.5411701 117.525769,56.6273741 C118.468789,56.980898 119.571156,57.2734694 120.665687,57.617415 C121.766313,57.9674558 122.897415,58.3270748 124.025034,58.8416871 C125.146558,59.3597823 126.326422,59.9666939 127.326041,61.1317551 C127.730939,61.6315646 128.037442,62.0791293 128.374422,62.5362721 C128.705306,62.9890612 129.03532,63.4270476 129.366204,63.8563265 C129.697959,64.2838639 130.044517,64.6905034 130.39717,65.0666667 C130.748952,65.4428299 131.123374,65.781551 131.495184,66.0192653 C131.87483,66.2604626 132.194395,66.3640816 132.49219,66.2961633 C132.808272,66.2360816 133.170503,65.8921361 133.453497,65.4645986 C133.739102,65.0353197 133.975075,64.529415 134.17883,64.0095782 C134.392163,63.4897415 134.560218,62.9463946 134.735238,62.3978231 C134.762231,63.5445986 134.730014,64.7087891 134.321633,65.8895238 Z M155.237878,51.2992653 C154.431565,52.5270204 152.479347,52.6689524 150.878912,51.6170884 C149.277605,50.5652245 148.635864,48.7157551 149.441306,47.4888707 C150.24849,46.2611156 152.199837,46.1200544 153.799401,47.1719184 C155.401578,48.2229116 156.045061,50.0706395 155.237878,51.2992653 Z" fill="#E3A835"></path>
            <path d="M202.214748,42.2687347 C196.451265,34.0288435 183.313415,27.2169796 180.246639,17.8668844 C179.462966,15.4766803 179.328871,10.5682721 180.843973,8.27385034 C182.214531,6.20146939 179.965388,6.69344218 179.965388,6.69344218 C176.69834,7.95863946 175.285116,4.34851701 175.285116,4.34851701 C174.794014,3.08331973 175.458395,-0.76277551 172.647619,1.34530612 C167.568544,5.15308844 169.242993,14.3943401 170.191238,18.1768707 C170.849524,21.0842993 173.859701,29.2632381 179.843483,35.0972517 C181.411701,36.6271565 191.792762,47.9590748 190.378667,53.7765442 C190.320327,54.0099048 190.131374,57.4154014 186.866939,58.0684626 C179.352381,59.5722449 176.909061,50.3658231 176.909061,50.3658231 C171.273578,26.3174966 162.183837,17.913034 162.183837,17.913034 C145.502041,17.2773878 133.141769,18.8220952 118.207565,21.6999184 C61.955483,19.594449 19.6275374,36.8753197 19.6275374,36.8753197 C7.24810884,54.6272653 0.00783673469,87.5633197 0.00783673469,87.5633197 C0.00783673469,87.5633197 -0.0252517007,87.7191837 0.114938776,87.7426939 C0.398802721,87.7897143 0.548571429,87.5363265 0.548571429,87.5363265 C8.29387755,77.8405442 16.2142041,71.7226667 16.2142041,71.7226667 C15.0413061,117.518803 25.4188844,145.39668 25.4188844,145.39668 L45.0638367,145.39668 C46.4474558,128.901224 59.4181224,110.644245 59.4181224,110.644245 C66.7210884,116.182204 83.217415,114.546939 83.217415,114.546939 C86.1152653,125.627211 92.0328707,145.39668 92.0328707,145.39668 L115.705905,145.39668 C117.858395,128.307374 123.324082,113.160707 128.584272,101.800925 C128.584272,101.800925 134.449633,88.5045986 134.638585,84.5592381 C135.013878,77.6089252 141.589769,75.540898 145.159837,75.540898 C148.728163,75.540898 164.955429,84.608 177.098014,83.9949932 C198.230204,82.9318095 206.56849,73.1541769 206.970776,62.0138231 C207.248544,54.3268571 205.446966,46.8897959 202.214748,42.2687347 Z M134.321633,65.8895238 C134.216272,66.182966 134.083048,66.4825034 133.881905,66.7689796 C133.684245,67.0537143 133.414313,67.3367075 133.05034,67.5334966 C132.68985,67.736381 132.250122,67.8164898 131.853932,67.7973333 C131.454259,67.7790476 131.093769,67.6806531 130.766367,67.5578776 C129.47766,67.0267211 128.566857,66.2038639 127.689143,65.397551 C127.252898,64.9917823 126.845388,64.5685986 126.447456,64.152381 C126.054748,63.7422585 125.64985,63.3060136 125.303293,62.9559728 C124.75385,62.443102 123.839565,62.0155646 122.878259,61.6742313 C121.904762,61.3381224 120.858122,61.0516463 119.775782,60.7834558 C118.689959,60.5082993 117.588463,60.2479456 116.389442,59.8578503 C116.087293,59.7559728 115.780789,59.6384218 115.448163,59.4895238 C115.296653,59.4216054 115.078095,59.3101497 114.930068,59.2274286 C114.714122,59.1037823 114.506014,58.9566259 114.313578,58.7911837 C113.924354,58.4585578 113.615238,58.0484354 113.394068,57.6400544 C113.174639,57.2281905 113.031837,56.8171973 112.940408,56.427102 C112.761905,55.6460408 112.747973,54.9389932 112.772354,54.2728707 C112.80283,53.6067483 112.879456,52.9771973 112.990041,52.3676735 C113.218177,51.1494966 113.525551,49.9992381 113.889524,48.8794558 C114.251755,47.7596735 114.648816,46.6668844 115.086803,45.5958639 C115.305361,45.0542585 115.515211,44.5379048 115.75902,43.9849796 C116.011537,43.4181224 116.29366,42.869551 116.601905,42.3375238 C117.849687,40.2137687 119.527619,38.4278639 121.410177,37.0068027 C122.354939,36.2971429 123.348463,35.6675918 124.380299,35.1338231 C125.413878,34.5965714 126.485769,34.1411701 127.593361,33.8311837 C125.716898,35.1442721 124.025905,36.6315102 122.551728,38.2606803 C121.086259,39.8889796 119.853279,41.6748844 119.01649,43.5879184 C118.804027,44.0624762 118.618558,44.5483537 118.460952,45.038585 L117.956789,46.6181224 C117.634612,47.6847891 117.309823,48.743619 117.037279,49.8015782 C116.765605,50.8569252 116.508735,51.9087891 116.36332,52.9284354 C116.288435,53.4369524 116.228354,53.9358912 116.215293,54.4026122 C116.20049,54.8667211 116.231837,55.306449 116.314558,55.6294966 C116.392054,55.9638639 116.495673,56.1205986 116.572299,56.1876463 C116.593197,56.205932 116.616707,56.2250884 116.647184,56.2442449 C116.74732,56.3008435 116.780408,56.3156463 116.884027,56.3670204 C117.069497,56.4558367 117.293279,56.5411701 117.525769,56.6273741 C118.468789,56.980898 119.571156,57.2734694 120.665687,57.617415 C121.766313,57.9674558 122.897415,58.3270748 124.025034,58.8416871 C125.146558,59.3597823 126.326422,59.9666939 127.326041,61.1317551 C127.730939,61.6315646 128.037442,62.0791293 128.374422,62.5362721 C128.705306,62.9890612 129.03532,63.4270476 129.366204,63.8563265 C129.697959,64.2838639 130.044517,64.6905034 130.39717,65.0666667 C130.748952,65.4428299 131.123374,65.781551 131.495184,66.0192653 C131.87483,66.2604626 132.194395,66.3640816 132.49219,66.2961633 C132.808272,66.2360816 133.170503,65.8921361 133.453497,65.4645986 C133.739102,65.0353197 133.975075,64.529415 134.17883,64.0095782 C134.392163,63.4897415 134.560218,62.9463946 134.735238,62.3978231 C134.762231,63.5445986 134.730014,64.7087891 134.321633,65.8895238 Z M155.237878,51.2992653 C154.431565,52.5270204 152.479347,52.6689524 150.878912,51.6170884 C149.277605,50.5652245 148.635864,48.7157551 149.441306,47.4888707 C150.24849,46.2611156 152.199837,46.1200544 153.799401,47.1719184 C155.401578,48.2229116 156.045061,50.0706395 155.237878,51.2992653 Z" fill="url(#radialGradient-1)" opacity="0.45"></path>
        </g>
        <path d="M483.325388,76.3898776 C473.801143,76.3898776 465.050122,81.7946122 460.802612,86.6847347 L450.507755,77.8048435 L445.615891,77.8048435 L445.615891,92.7477551 C439.368272,82.9004626 428.321088,76.3898776 415.760544,76.3898776 C403.228735,76.3898776 392.257306,82.8717279 386.03668,92.6833197 L386.02449,57.6914286 L368.124517,42.1651156 L363.245714,42.1651156 L363.245714,77.8048435 L349.74302,77.8048435 L333.782204,109.20751 L317.698612,77.8048435 L293.504,77.8048435 L298.776381,88.1806803 C292.634122,80.9769796 283.284898,76.3898776 272.656544,76.3898776 C250.521252,76.3898776 235.592272,92.2200816 235.592272,111.652571 C235.592272,113.785905 235.780354,115.87483 236.132136,117.905415 C231.216762,120.244245 226.289197,122.955755 217.231673,122.955755 C206.078259,122.955755 199.262912,114.743728 199.262912,104.832 C199.262912,95.0709116 206.078259,86.5506395 217.231673,86.5506395 C227.610993,86.5506395 232.258177,90.7337143 238.300299,92.7468844 L238.300299,69.9768163 C231.329959,65.3287619 225.134585,62.6938776 214.756136,62.6938776 C212.741224,62.6938776 210.776816,62.8218776 208.857687,63.0439184 C208.300408,70.1770884 203.847401,84.597551 177.196408,85.9393741 C176.772354,85.9602721 176.336109,85.9715918 175.896381,85.9715918 C175.56898,85.9715918 175.238095,85.9559184 174.907211,85.9445986 C172.035483,91.6297143 170.452463,98.041034 170.452463,104.830259 C170.452463,127.910313 188.884463,146.964898 214.756136,146.964898 C225.134585,146.964898 231.33083,144.17502 238.302041,139.375456 L238.302041,125.338122 C243.540463,137.717551 256.172408,146.398041 274.328381,146.398041 C286.170558,146.398041 297.237769,141.122177 303.543728,134.298993 L294.921578,124.39249 C290.80381,127.865905 285.783946,130.054095 278.963374,130.054095 C266.354068,130.054095 258.62966,123.617524 259.275755,114.481633 L305.860789,114.481633 C306.656653,109.953741 306.493823,105.566041 305.536,101.476136 L321.55951,133.012027 L300.969796,173.549714 L324.520925,173.549714 L363.247456,97.529034 L363.247456,144.981333 L386.05932,144.981333 L386.053224,130.126367 C392.274721,139.925769 403.239184,146.39717 415.760544,146.39717 C428.321088,146.39717 439.368272,139.886585 445.615891,130.041034 L445.615891,144.981333 L468.525279,144.981333 L468.525279,109.976381 L468.525279,101.484844 C471.099211,96.9795918 474.575238,94.0181769 480.235973,94.0181769 C485.898449,94.0181769 488.473252,97.4950748 488.473252,108.046803 L488.473252,111.007347 L488.473252,144.981333 L511.380898,144.981333 L511.380898,101.740844 C511.380898,88.6160544 503.40049,76.3898776 483.325388,76.3898776 Z M260.174367,101.098231 C262.619429,94.4056599 267.897034,90.8033741 272.528544,90.8033741 C279.476245,90.8033741 283.467755,95.1780136 283.467755,101.098231 L260.174367,101.098231 L260.174367,101.098231 Z M415.760544,129.795483 C409.714939,129.795483 404.565333,121.559946 404.565333,111.396571 C404.565333,101.226231 409.714939,92.9915646 415.760544,92.9915646 C421.940245,92.9915646 427.088109,101.226231 427.088109,111.396571 C427.087238,121.559946 421.939374,129.795483 415.760544,129.795483 Z" fill="url(#radialGradient-2)"></path>
    </g>
</svg>

<svg xmlns="http://www.w3.org/2000/svg" viewBox="0 0 511.376 172.824">
  <defs>
    <radialGradient id="a" cx="126.811" cy="29.646" r="136.707" fx="126.811" fy="29.646" gradientTransform="scale(1.19616 .836)" gradientUnits="userSpaceOnUse">
      <stop offset="0%" stop-color="#FFF"/>
      <stop offset="100%" stop-color="#AB710A"/>
    </radialGradient>
    <radialGradient id="b" cx="112.892" cy="79.115" r="95.56" fx="112.892" fy="79.115" gradientTransform="scale(1.61087 .62078)" gradientUnits="userSpaceOnUse">
      <stop offset="0%" stop-color="#D5D5D5"/>
      <stop offset="100%" stop-color="#141006"/>
    </radialGradient>
  </defs>
  <path fill="#ab710a" d="M60.337 113.992c1.414.688 2.964 1.225 4.576 1.65-.132 7.538.326 18.77 3.314 29.028H48.095c1.105-12.078 8.881-25.41 12.242-30.678zm75.424-25.275c3.38 10.71 4.964 37.526 11.634 55.953h-25.326c.497-3.858-2.137-7.74-1.271-11.632 2.076-9.33 5.203-18.738 9.35-28.108.086.135 5.528-16.344 5.613-16.213z"/>
  <path fill="#e3a835" d="M202.21 41.543c-5.763-8.24-18.901-15.052-21.968-24.402-.783-2.39-.918-7.299.598-9.593 1.37-2.072-.879-1.58-.879-1.58-3.267 1.265-4.68-2.345-4.68-2.345-.491-1.266.173-5.112-2.638-3.004-5.079 3.808-3.404 13.05-2.456 16.832.658 2.907 3.668 11.086 9.652 16.92 1.568 1.53 11.95 12.862 10.535 18.68-.058.233-.247 3.639-3.511 4.292-7.515 1.503-9.958-7.703-9.958-7.703-5.636-24.048-14.726-32.453-14.726-32.453-16.681-.635-29.042.91-43.976 3.787-56.252-2.105-98.58 15.175-98.58 15.175C7.243 53.901.003 86.837.003 86.837s-.033.156.108.18c.283.047.433-.207.433-.207C8.29 77.115 16.21 70.997 16.21 70.997c-1.173 45.796 9.204 73.674 9.204 73.674H45.06c1.384-16.496 14.355-34.753 14.355-34.753 7.303 5.538 23.799 3.903 23.799 3.903 2.898 11.08 8.815 30.85 8.815 30.85h23.673c2.153-17.09 7.619-32.236 12.879-43.596 0 0 5.865-13.296 6.054-17.242.375-6.95 6.951-9.018 10.521-9.018 3.569 0 19.796 9.067 31.939 8.454 21.132-1.063 29.47-10.84 29.872-21.981.278-7.687-1.523-15.124-4.756-19.745zm-67.893 23.62a3.643 3.643 0 0 1-.44.88 2.428 2.428 0 0 1-.831.765c-.36.203-.8.283-1.197.263-.4-.018-.76-.116-1.087-.239-1.289-.531-2.2-1.354-3.077-2.16a29.876 29.876 0 0 1-1.242-1.245c-.393-.41-.798-.847-1.144-1.197-.55-.513-1.464-.94-2.425-1.282a36.439 36.439 0 0 0-3.103-.89c-1.085-.276-2.187-.536-3.386-.926-.302-.102-.609-.22-.941-.368a7.606 7.606 0 0 1-.518-.262 3.994 3.994 0 0 1-.617-.437 4.083 4.083 0 0 1-.92-1.15 4.994 4.994 0 0 1-.453-1.214c-.179-.78-.192-1.488-.168-2.154.03-.666.107-1.296.218-1.905.228-1.218.535-2.369.9-3.488a46.36 46.36 0 0 1 1.196-3.284c.219-.542.429-1.058.673-1.61.252-.568.534-1.116.842-1.648 1.248-2.124 2.926-3.91 4.809-5.331.945-.71 1.938-1.34 2.97-1.873 1.033-.537 2.105-.993 3.213-1.303a29.939 29.939 0 0 0-5.042 4.43c-1.465 1.628-2.698 3.414-3.535 5.327-.212.475-.398.96-.555 1.45l-.505 1.58c-.322 1.067-.647 2.126-.92 3.184-.27 1.055-.528 2.107-.673 3.127a12.76 12.76 0 0 0-.148 1.474c-.015.464.016.904.1 1.227.077.334.18.49.257.558.02.018.044.037.075.056.1.057.133.072.237.123.185.089.409.174.641.26.943.354 2.046.647 3.14.99 1.1.35 2.232.71 3.36 1.225 1.121.518 2.301 1.125 3.3 2.29.406.5.712.947 1.049 1.404.33.453.66.891.992 1.32.332.428.678.835 1.03 1.21.353.377.727.716 1.099.953.38.242.699.345.997.277.316-.06.678-.404.961-.831.286-.43.522-.935.725-1.455.214-.52.382-1.063.557-1.612.027 1.147-.005 2.31-.414 3.492zm20.916-14.59c-.806 1.228-2.758 1.37-4.359.318-1.6-1.052-2.243-2.901-1.437-4.128.807-1.228 2.758-1.369 4.358-.317 1.602 1.051 2.246 2.899 1.438 4.127z"/>
  <path fill="url(#a)" d="M202.215 42.269c-5.764-8.24-18.902-15.052-21.968-24.402-.784-2.39-.918-7.299.597-9.593 1.37-2.073-.879-1.58-.879-1.58-3.267 1.265-4.68-2.345-4.68-2.345-.491-1.266.173-5.112-2.637-3.004-5.08 3.808-3.405 13.05-2.457 16.832.659 2.907 3.669 11.086 9.652 16.92 1.569 1.53 11.95 12.862 10.536 18.68-.059.233-.248 3.638-3.512 4.291-7.515 1.504-9.958-7.702-9.958-7.702-5.635-24.049-14.725-32.453-14.725-32.453-16.682-.636-29.042.91-43.976 3.787-56.253-2.106-98.58 15.175-98.58 15.175C7.248 54.627.008 87.563.008 87.563s-.033.156.107.18c.284.047.434-.207.434-.207 7.745-9.695 15.665-15.813 15.665-15.813-1.173 45.796 9.205 73.674 9.205 73.674h19.645c1.383-16.496 14.354-34.753 14.354-34.753 7.303 5.538 23.8 3.903 23.8 3.903 2.897 11.08 8.815 30.85 8.815 30.85h23.673c2.152-17.09 7.618-32.236 12.878-43.596 0 0 5.866-13.296 6.055-17.242.375-6.95 6.95-9.018 10.52-9.018 3.57 0 19.796 9.067 31.939 8.454 21.132-1.063 29.47-10.84 29.873-21.981.278-7.687-1.524-15.124-4.756-19.745zm-67.893 23.62a3.643 3.643 0 0 1-.44.88 2.428 2.428 0 0 1-.832.764c-.36.203-.8.283-1.196.264-.4-.018-.76-.116-1.088-.24-1.288-.53-2.2-1.353-3.077-2.16a29.876 29.876 0 0 1-1.242-1.245c-.392-.41-.797-.846-1.144-1.196-.55-.513-1.463-.94-2.425-1.282a36.439 36.439 0 0 0-3.102-.89c-1.086-.276-2.188-.536-3.387-.926-.302-.102-.608-.22-.94-.368a7.606 7.606 0 0 1-.519-.263 3.994 3.994 0 0 1-.616-.436 4.083 4.083 0 0 1-.92-1.15 4.994 4.994 0 0 1-.454-1.214c-.178-.781-.192-1.488-.168-2.154.03-.666.107-1.296.218-1.905.228-1.219.536-2.369.9-3.489a46.36 46.36 0 0 1 1.197-3.283c.218-.542.428-1.058.672-1.611.253-.567.535-1.115.843-1.647 1.248-2.124 2.926-3.91 4.808-5.331.945-.71 1.938-1.34 2.97-1.873 1.034-.537 2.106-.993 3.213-1.303a29.939 29.939 0 0 0-5.041 4.43c-1.466 1.628-2.699 3.414-3.536 5.327-.212.474-.397.96-.555 1.45l-.504 1.58c-.322 1.067-.647 2.126-.92 3.184-.271 1.055-.528 2.107-.674 3.126a12.76 12.76 0 0 0-.148 1.475c-.015.464.017.903.1 1.226.077.335.18.492.257.559.021.018.045.037.075.056.1.057.133.072.237.123.186.089.41.174.642.26.943.354 2.045.646 3.14.99 1.1.35 2.231.71 3.36 1.225 1.12.518 2.3 1.125 3.3 2.29.405.5.711.947 1.048 1.404.331.453.661.891.992 1.32.332.428.679.835 1.031 1.21.352.377.726.716 1.098.953.38.241.7.345.997.277.316-.06.679-.404.962-.831.285-.43.521-.936.725-1.455.213-.52.381-1.064.556-1.612.027 1.147-.005 2.31-.413 3.492zm20.916-14.59c-.806 1.228-2.759 1.37-4.36.318-1.6-1.052-2.242-2.901-1.437-4.128.807-1.228 2.759-1.369 4.358-.317 1.603 1.05 2.246 2.899 1.439 4.127z" opacity=".45" style="fill:url(#a)" transform="translate(-.004 -.726)"/>
  <path fill="url(#b)" d="M483.325 76.39c-9.524 0-18.275 5.405-22.522 10.295l-10.295-8.88h-4.892v14.943A35.283 35.283 0 0 0 415.76 76.39c-12.532 0-23.504 6.482-29.724 16.293l-.013-34.992-17.9-15.526h-4.878v35.64h-13.503l-15.96 31.403-16.084-31.403h-24.195l5.272 10.376c-6.142-7.204-15.491-11.791-26.12-11.791-22.135 0-37.064 15.83-37.064 35.263 0 2.133.188 4.222.54 6.252-4.915 2.34-9.843 5.05-18.9 5.05-11.154 0-17.97-8.211-17.97-18.123 0-9.761 6.816-18.281 17.97-18.281 10.379 0 15.026 4.183 21.068 6.196v-22.77c-6.97-4.648-13.165-7.283-23.544-7.283-2.015 0-3.98.128-5.898.35-.558 7.133-5.01 21.554-31.662 22.895-.424.021-.86.033-1.3.033-.327 0-.658-.016-.989-.027-2.872 5.685-4.455 12.096-4.455 18.885 0 23.08 18.432 42.135 44.304 42.135 10.379 0 16.575-2.79 23.546-7.59v-14.037c5.238 12.38 17.87 21.06 36.026 21.06 11.843 0 22.91-5.276 29.216-12.099l-8.622-9.907c-4.118 3.474-9.138 5.662-15.959 5.662-12.609 0-20.333-6.436-19.687-15.572h46.585c.796-4.528.633-8.916-.325-13.006l16.024 31.536-20.59 40.538h23.55l38.727-76.021v47.452h22.812l-.006-14.855c6.222 9.8 17.186 16.271 29.708 16.271 12.56 0 23.607-6.51 29.855-16.356v14.94h22.91v-43.496c2.573-4.505 6.05-7.467 11.71-7.467 5.663 0 8.237 3.477 8.237 14.029v36.934h22.908v-43.24c0-13.125-7.98-25.351-28.056-25.351zm-223.15 24.708c2.444-6.692 7.722-10.295 12.354-10.295 6.947 0 10.939 4.375 10.939 10.295zm155.586 28.697c-6.046 0-11.196-8.235-11.196-18.398 0-10.17 5.15-18.405 11.196-18.405 6.18 0 11.327 8.234 11.327 18.405 0 10.163-5.149 18.398-11.327 18.398z" style="fill:url(#b)" transform="translate(-.004 -.726)"/>
</svg>
